!!!!SEGMENT: pl-cz--iii-33--002_bolehovsky-josef--missa-pastoralis-in-d-christe.krn
!!!cenid: 18xx:673
!!!COM: Bolehovský, Josef
!!!COM-rismid: pe30000404
!!!CDT: 1743-1811
!!!CNT: Czech
!!!OPR: Missa Pastoralis in D
!!!OTL: Christe
!!!OMV: 002
!!!PDT: 1821
!!!AGN: Sacred; Mass
!!!SMS-siglum: PL-CZ
!!!SMS-shelfmark: III-33
!!!SMS-shelfwork: 001-002 M
!!!SMS-variant:
!!!SMS-altvar:
!!!NIFC-rismid: 300237609
!!!URL-scan: http://repozytorium.nifc.pl/skany/pl-cz-nut--iii-33
!!!ONB-nifc: UWAGA: części Mszy: Kyrie, Christe, Gloria, Credo, Sanctus, Benedictus, Agnus Dei
**kern	**fba	**dynam	**kern	**dynam	**kern	**kern	**text	**kern	**text	**kern	**text	**kern	**text	**kern	**kern	**kern	**kern	**dynam	**kern
*part12	*	*part12	*part11	*part11	*part10	*part9	*part9	*part8	*part8	*part7	*part7	*part6	*part6	*part5	*part4	*part3	*part2	*part2	*part1
*staff12	*	*	*staff11	*	*staff10	*staff9	*staff9	*staff8	*staff8	*staff7	*staff7	*staff6	*staff6	*staff5	*staff4	*staff3	*staff2	*	*staff1
*I"Organo	*	*	*I"Violino IIdo	*	*I"Violino 1mo	*I"Basso	*	*I"Tenore	*	*I"Alto	*	*I"Canto	*	*I"Timpano in D	*I"Clarino Prinzipale in D	*I"Corni duo in D	*I"Clarinetto 2do	*	*I"Clarinetto 1mo
*I'org	*	*	*I'vl II	*	*I'vl I	*I'B	*	*I'T	*	*I'A	*	*I'C	*	*I'timp	*I'clno prin.	*I'cor I/II	*I'cl II	*	*I'cl I
*clefF4	*	*	*clefG2	*	*clefG2	*clefF4	*	*clefC4	*	*clefC3	*	*clefC1	*	*clefF4	*clefG2	*clefG2	*clefG2	*	*clefG2
*	*	*	*	*	*	*	*	*	*	*	*	*	*	*ITrd-1c-2	*ITrd-1c-2	*ITrd6c10	*	*	*
*k[f#c#g#]	*	*	*k[f#c#g#]	*	*k[f#c#g#]	*k[f#c#g#]	*	*k[f#c#g#]	*	*k[f#c#g#]	*	*k[f#c#g#]	*	*k[f#c#g#]	*k[f#c#g#]	*k[f#c#g#]	*k[f#c#g#]	*	*k[f#c#g#]
*A:	*	*	*A:	*	*A:	*A:	*	*A:	*	*A:	*	*A:	*	*A:	*A:	*A:	*A:	*	*A:
*M3/8	*	*	*M3/8	*	*M3/8	*M3/8	*	*M3/8	*	*M3/8	*	*M3/8	*	*M3/8	*M3/8	*M3/8	*M3/8	*	*M3/8
=1	=1	=1	=1	=1	=1	=1	=1	=1	=1	=1	=1	=1	=1	=1	=1	=1	=1	=1	=1
!	!	!	!	!	!	!	!	!LO:TX:a:t=15.	!	!LO:TX:a:t=15	!	!	!	!	!	!	!	!	!
!	!	!	!	!	!	!	!	!LO:SIC:o:s=:v:brak oznaczenia tempa	!	!LO:SIC:o:s=:v:brak oznaczenia tempa	!	!	!	!	!	!	!LO:TX:a:t=1.	!	!LO:TX:a:t=1
!	!	!	!	!	!LO:SIC:o:s=:v:przy kluczu błędnie [dd# a# cc#]	!LO:SIC:o:s=:v:brak oznaczenia tempa	!	!LO:TX:b:t=15	!	!LO:TX:b:t=15.	!	!LO:TX:b:t=15.	!	!	!	!	!LO:SIC:o:s=:v:brak oznaczenia tempa	!	!LO:SIC:o:s=:v:brak oznaczenia tempa
!LO:TX:a:B:t=And(an)te	!	!	!LO:TX:a:B:t=Andante	!	!LO:TX:a:B:t=andante	!LO:TX:b:t=15.	!	!LO:SIC:o:s=:v:przy kluczu błędnie [c# A# f#]	!	!LO:SIC:o:s=:v:przy kluczu [g# c# f#]	!	!LO:TX:a:B:t=andante	!	!LO:SIC:o:s=:v:brak informacji o części Christe	!LO:TX:a:B:t=Christe Tacet.	!LO:TX:a:B:t=Christe Tacet.	!LO:SIC:o:s=:v:przy kluczu błędnie [f# h# gg#]	!	!LO:SIC:o:s=:v:przy kluczu błędnie [f# h# gg#]
!	!	!	!	!	!	!LO:N:vis=1	!	!LO:N:vis=1	!	!LO:N:vis=1	!	!LO:N:vis=1	!	!	!	!	!LO:N:vis=1	!	!LO:N:vis=1
8AA/L	.	.	8c#/L	.	8a/L	4.r	.	4.r	.	4.r	.	4.r	.	4.ryy	4.ryy	4.ryy	4.r	.	4.r
8C#/	6	.	8c#/	.	8a/	.	.	.	.	.	.	.	.	.	.	.	.	.	.
8AA/J	.	.	8c#/J	.	8a/J	.	.	.	.	.	.	.	.	.	.	.	.	.	.
=2	=2	=2	=2	=2	=2	=2	=2	=2	=2	=2	=2	=2	=2	=2	=2	=2	=2	=2	=2
!LO:TX:t=P:problem:mixedbeam	!	!	!	!	!	!	!	!	!	!	!	!	!	!	!	!	!	!	!
.	.	.	.	.	8qqcc#/	.	.	.	.	.	.	.	.	.	.	.	.	.	.
!	!	!	!	!	!	!LO:N:vis=1	!	!LO:N:vis=1	!	!LO:N:vis=1	!	!LO:N:vis=1	!	!	!	!	!	!	!
8E\L	3	.	16d/LL	.	(16b\LL	4.r	.	4.r	.	4.r	.	4.r	.	4.ryy	4.ryy	4.ryy	8r	p	8r
.	.	.	32c#/L	.	32a\L	.	.	.	.	.	.	.	.	.	.	.	.	.	.
.	.	.	32d/JJJ	.	32b\JJJ)	.	.	.	.	.	.	.	.	.	.	.	.	.	.
8AA/J	.	.	8c#/	.	8a/	.	.	.	.	.	.	.	.	.	.	.	16r	.	16r
!	!	!	!	!	!	!	!	!	!	!	!	!	!	!	!	!	!	!	!LO:SIC:o:s=:v:niejednoznaczny zapis artykulacji [przyjęto staccatissimo]&colon;global
.	.	.	.	.	.	.	.	.	.	.	.	.	.	.	.	.	16cc#X\KL	.	16aa`\LL
8r	.	.	8r	.	8r	.	.	.	.	.	.	.	.	.	.	.	8cc#X\J	.	(16gg#X\
.	.	.	.	.	.	.	.	.	.	.	.	.	.	.	.	.	.	.	16aa\JJ)
=3	=3	=3	=3	=3	=3	=3	=3	=3	=3	=3	=3	=3	=3	=3	=3	=3	=3	=3	=3
!	!	!	!	!	!	!LO:N:vis=1	!	!LO:N:vis=1	!	!LO:N:vis=1	!	!LO:N:vis=1	!	!	!	!	!LO:TX:a:t=1.	!	!LO:TX:a:t=1.
!	!	!	!	!	!	!	!	!	!	!	!	!	!	!	!	!	!LO:N:vis=1	!	!LO:N:vis=1
8A\L	.	.	8a/L	.	8cc#\L	4.r	.	4.r	.	4.r	.	4.r	.	4.ryy	4.ryy	4.ryy	4.r	.	4.r
8c#\	6	.	8a/	.	8cc#\	.	.	.	.	.	.	.	.	.	.	.	.	.	.
8A\J	.	.	8a/J	.	8cc#\J	.	.	.	.	.	.	.	.	.	.	.	.	.	.
=4	=4	=4	=4	=4	=4	=4	=4	=4	=4	=4	=4	=4	=4	=4	=4	=4	=4	=4	=4
!LO:TX:t=P:problem:mixedbeam	!	!	!	!	!	!	!	!	!	!	!	!	!	!	!	!	!	!	!
.	.	.	.	.	8qqee/	.	.	.	.	.	.	.	.	.	.	.	.	.	.
!	!	!	!	!	!	!LO:N:vis=1	!	!LO:N:vis=1	!	!LO:N:vis=1	!	!LO:N:vis=1	!	!	!	!	!	!	!
8E\L	3	.	16b/LL	.	(16dd\LL	4.r	.	4.r	.	4.r	.	4.r	.	4.ryy	4.ryy	4.ryy	8r	.	8r
.	.	.	32a/L	.	32cc#\L	.	.	.	.	.	.	.	.	.	.	.	.	.	.
.	.	.	32b/JJJ	.	32dd\JJJ)	.	.	.	.	.	.	.	.	.	.	.	.	.	.
8AA/J	.	.	8a/	.	8cc#\	.	.	.	.	.	.	.	.	.	.	.	16r	.	16r
.	.	.	.	.	.	.	.	.	.	.	.	.	.	.	.	.	16cc#X\KL	.	16aa`\LL
8r	.	.	8r	.	8r	.	.	.	.	.	.	.	.	.	.	.	8cc#\J	.	(16gg#X\
.	.	.	.	.	.	.	.	.	.	.	.	.	.	.	.	.	.	.	16aa\JJ)
=5	=5	=5	=5	=5	=5	=5	=5	=5	=5	=5	=5	=5	=5	=5	=5	=5	=5	=5	=5
!	!	!	!	!	!	!	!	!	!	!	!	!	!	!	!	!	!LO:TX:a:t=4.	!	!LO:TX:a:t=4.
!	!	!	!	!	!	!	!	!	!	!	!	!	!	!	!	!	!LO:N:vis=--	!	!LO:N:vis=00
8C#/L	.	.	4a/	.	4aa\	4.r	.	4.r	.	4.r	.	4.r	.	4.ryy	4.ryy	4.ryy	1.r	.	1.r
8AA/	6	.	.	.	.	.	.	.	.	.	.	.	.	.	.	.	.	.	.
8C#/J	.	.	8e/	.	8ee\	.	.	.	.	.	.	.	.	.	.	.	.	.	.
=6	=6	=6	=6	=6	=6	=6	=6	=6	=6	=6	=6	=6	=6	=6	=6	=6	=6	=6	=6
8r	.	.	8e#X/L	.	8ee#X\L	4.r	.	4.r	.	4.r	.	4.r	.	4.ryy	4.ryy	4.ryy	.	.	.
8d\L	3	.	8f#/	.	8ff#\	.	.	.	.	.	.	.	.	.	.	.	.	.	.
8B\J	3	.	8d/J	.	8dd\J	.	.	.	.	.	.	.	.	.	.	.	.	.	.
=7	=7	=7	=7	=7	=7	=7	=7	=7	=7	=7	=7	=7	=7	=7	=7	=7	=7	=7	=7
!LO:TX:t=P:problem:mixedbeam	!	!	!	!	!	!	!	!	!	!	!	!	!	!	!	!	!	!	!
8A\L	.	.	16c#/LL	.	16cc#\LL	4.r	.	4.r	.	4.r	.	4.r	.	4.ryy	4.ryy	4.ryy	.	.	.
.	.	.	32d/L	.	32dd\L	.	.	.	.	.	.	.	.	.	.	.	.	.	.
.	.	.	32e/JJJ	.	32ee\JJJ	.	.	.	.	.	.	.	.	.	.	.	.	.	.
8E\	4	.	8A/L	.	8a/L	.	.	.	.	.	.	.	.	.	.	.	.	.	.
8EE/J	3	.	8G#X/J	.	8g#/J	.	.	.	.	.	.	.	.	.	.	.	.	.	.
=8	=8	=8	=8	=8	=8	=8	=8	=8	=8	=8	=8	=8	=8	=8	=8	=8	=8	=8	=8
!LO:TX:t=P:problem:mixedbeam	!	!	!	!	!	!	!	!	!	!	!	!	!	!	!	!	!	!	!
16AA/LL	.	.	4A/	.	4a/	4.r	.	4.r	.	4.r	.	4.r	.	4.ryy	4.ryy	4.ryy	.	.	.
!LO:SIC:o:s=:v:niejednoznaczny zapis artykulacji [przyjęto staccatissimo]&colon;global	!	!	!	!	!	!	!	!	!	!	!	!	!	!	!	!	!	!	!
16F#`\	.	.	.	.	.	.	.	.	.	.	.	.	.	.	.	.	.	.	.
16E`\	.	.	.	.	.	.	.	.	.	.	.	.	.	.	.	.	.	.	.
16D`\	.	.	.	.	.	.	.	.	.	.	.	.	.	.	.	.	.	.	.
16C#`\	.	.	8r	.	8r	.	.	.	.	.	.	.	.	.	.	.	.	.	.
16BB`\JJ	.	.	.	.	.	.	.	.	.	.	.	.	.	.	.	.	.	.	.
=9	=9	=9	=9	=9	=9	=9	=9	=9	=9	=9	=9	=9	=9	=9	=9	=9	=9	=9	=9
8AA/L	.	.	4a/	.	4aa\	4.r	.	4.r	.	4.r	.	4.r	.	4.ryy	4.ryy	4.ryy	8r	.	8r
8C#/	6	.	.	.	.	.	.	.	.	.	.	.	.	.	.	.	8r	.	8r
8C#/J	.	.	8a/	.	8ee\	.	.	.	.	.	.	.	.	.	.	.	8e/	.	8ee\
=10	=10	=10	=10	=10	=10	=10	=10	=10	=10	=10	=10	=10	=10	=10	=10	=10	=10	=10	=10
!	!	!	!LO:LB:g=original	!	!	!	!	!	!	!	!	!	!	!	!	!	!	!	!
8r	.	.	8a/	.	4ff#\	4.r	.	4.r	.	4.r	.	4.r	.	4.ryy	4.ryy	4.ryy	4dd\	.	4ff#X\
8D\L	5	.	8r	.	.	.	.	.	.	.	.	.	.	.	.	.	.	.	.
8D\J	.	.	8a/	.	8dd\	.	.	.	.	.	.	.	.	.	.	.	8b\	.	8dd\
=11	=11	=11	=11	=11	=11	=11	=11	=11	=11	=11	=11	=11	=11	=11	=11	=11	=11	=11	=11
!LO:LB:g=original	!	!	!	!	!LO:LB:g=original	!	!	!	!	!	!	!	!	!	!	!	!	!	!
!	!	!	!	!	!	!	!	!	!	!	!	!	!	!	!	!	!LO:SIC:o:s=:v:niejednoznaczny zapis artykulacji [przyjęto staccatissimo]&colon;global	!	!
8C#/L	6	.	16a/LL	.	(16cc#\LL	4.r	.	4.r	.	4.r	.	4.r	.	4.ryy	4.ryy	4.ryy	8a`\	.	(16cc#X\LL
.	.	.	16cc#/JJ	.	16ee\	.	.	.	.	.	.	.	.	.	.	.	.	.	16ee\JJ)
8E/	4	.	16c#/LL	.	16a\	.	.	.	.	.	.	.	.	.	.	.	8ee`\L	.	8aa`\L
.	.	.	16e/	.	16cc#\	.	.	.	.	.	.	.	.	.	.	.	.	.	.
8EE/J	3	.	16d/	.	16b\	.	.	.	.	.	.	.	.	.	.	.	8dd`\J	.	8gg#X`\J
.	.	.	16B/JJ	.	16g#\JJ)	.	.	.	.	.	.	.	.	.	.	.	.	.	.
=12	=12	=12	=12	=12	=12	=12	=12	=12	=12	=12	=12	=12	=12	=12	=12	=12	=12	=12	=12
8AA/	.	.	8c#/	.	8a/	4.r	.	4.r	.	4.r	.	4.r	.	4.ryy	4.ryy	4.ryy	8ee\	.	8aa`\
8r	.	.	8r	.	8r	.	.	.	.	.	.	.	.	.	.	.	8r	.	8r
8F#\	6	.	8a/	.	8dd#X\	.	.	.	.	.	.	.	.	.	.	.	8r	.	8r
=13	=13	=13	=13	=13	=13	=13	=13	=13	=13	=13	=13	=13	=13	=13	=13	=13	=13	=13	=13
8E\	.	.	8g#/	.	8ee\	4.r	.	4.r	.	4.r	.	4.r	.	4.ryy	4.ryy	4.ryy	8r	.	8r
8r	.	.	8r	.	8r	.	.	.	.	.	.	.	.	.	.	.	8r	.	8r
8G#\	4	.	8b/	.	8ddn\	.	.	.	.	.	.	.	.	.	.	.	8b\	.	8dd\
.	5	.	.	.	.	.	.	.	.	.	.	.	.	.	.	.	.	.	.
=14	=14	=14	=14	=14	=14	=14	=14	=14	=14	=14	=14	=14	=14	=14	=14	=14	=14	=14	=14
!	!	!	!	!	!	!	!	!	!	!	!	!	!	!	!	!	!	!	!LO:LB:g=original
!LO:TX:t=P:problem:mixedbeam	!	!	!	!	!	!	!	!	!	!	!	!	!	!	!	!	!	!	!
8A\L	.	.	16a/LL	.	(16cc#\LL	4.r	.	4.r	.	4.r	.	4.r	.	4.ryy	4.ryy	4.ryy	8a/	.	16cc#X\LL
.	.	.	16cc#/JJ	.	16ee\	.	.	.	.	.	.	.	.	.	.	.	.	.	16ee\JJ
8E\	4	.	16c#/LL	.	16a\	.	.	.	.	.	.	.	.	.	.	.	8ee\L	.	8aa\L
.	.	.	16e/	.	16cc#\	.	.	.	.	.	.	.	.	.	.	.	.	.	.
8EE/J	3	.	16d/	.	16b\	.	.	.	.	.	.	.	.	.	.	.	8dd\J	.	8gg#X\J
.	.	.	16B/JJ	.	16g#\JJ)	.	.	.	.	.	.	.	.	.	.	.	.	.	.
=15	=15	=15	=15	=15	=15	=15	=15	=15	=15	=15	=15	=15	=15	=15	=15	=15	=15	=15	=15
!	!	!LO:DY:a	!	!	!	!LO:SIC:o:s=:v:kreska taktowa pojedyncza	!	!LO:SIC:o:s=:v:kreska taktowa pojedyncza	!	!	!	!LO:SIC:o:s=:v:kreska taktowa pojedyncza	!	!	!	!	!LO:SIC:o:s=:v:kreska taktowa pojedyncza	!	!
4AA/	.	p	4c#;/	.	4a;/	4.r	.	4.r	.	4.r	.	4.r	.	4.ryy	4.ryy	4.ryy	4cc#X\	.	4aa\
!LO:SIC:o:s=:v:kreska taktowa pojedyncza	!	!	!	!	!	!	!	!	!	!	!	!	!	!	!	!	!	!	!LO:SIC:o:s=:v:kreska taktowa pojedyncza
8r	.	.	8r	.	8r	.	.	.	.	.	.	.	.	.	.	.	8r	.	8r
=16||	=16||	=16||	=16||	=16||	=16||	=16||	=16||	=16||	=16||	=16||	=16||	=16||	=16||	=16||	=16||	=16||	=16||	=16||	=16||
!	!	!	!	!	!	!	!	!	!	!	!	!	!	!	!	!	!LO:LB:g=original	!	!
!	!	!	!	!LO:DY:a	!	!LO:TX:a:i:t=Solo	!	!LO:TX:a:i:t=Solo	!	!LO:TX:a:i:t=Solo.	!	!LO:TX:a:i:t=Solo	!	!	!	!	!LO:TX:a:t=1.	!	!LO:TX:a:t=1.
!	!	!	!	!	!	!	!	!	!	!	!	!	!	!	!	!	!LO:N:vis=1	!	!LO:N:vis=1
8AA/L	.	.	8c#/L	p	8a/L	8AA/	Chri-	8c#\	Chri-	8e\	Chri-	8a\	Chri-	4.ryy	4.ryy	4.ryy	4.r	.	4.r
8C#/	6	.	8c#/	.	8a/	8C#/	-ste	8c#\	-ste	8e\	-ste	8a\	-ste	.	.	.	.	.	.
8AA/J	.	.	8c#/J	.	8a/J	8AA/	e-	8c#\	e-	8e\	e-	8a\	e-	.	.	.	.	.	.
=17	=17	=17	=17	=17	=17	=17	=17	=17	=17	=17	=17	=17	=17	=17	=17	=17	=17	=17	=17
!LO:TX:t=P:problem:mixedbeam	!	!	!	!	!	!	!	!	!	!	!	!	!	!	!	!	!	!	!
.	.	.	.	.	8qqcc#/	.	.	8qqe/	.	.	.	16qqcc#/	.	.	.	.	.	.	.
8E\L	3	.	16d/LL	.	(16b\LL	8E\	-lei-	(16d\LL	-lei-	8e\	-lei-	16b\LL	-lei-	4.ryy	4.ryy	4.ryy	8r	.	8r
.	.	.	32c#/L	.	32a\L	.	.	32c#\L	.	.	.	32a\L	.	.	.	.	.	.	.
.	.	.	32d/JJJ	.	32b\JJJ)	.	.	32d\JJJ)	.	.	.	32b\JJJ	.	.	.	.	.	.	.
8AA/J	.	.	8c#/	.	8a/	8AA/	-son	8c#\	-son	8e\	-son	8a\	-son	.	.	.	16r	.	16r
.	.	.	.	.	.	.	.	.	.	.	.	.	.	.	.	.	16cc#X\KL	.	16aa`\LL
8r	.	.	8r	.	8r	8r	.	8r	.	8r	.	8r	.	.	.	.	8cc#\J	.	(16gg#X\
.	.	.	.	.	.	.	.	.	.	.	.	.	.	.	.	.	.	.	16aa\JJ)
=18	=18	=18	=18	=18	=18	=18	=18	=18	=18	=18	=18	=18	=18	=18	=18	=18	=18	=18	=18
!	!	!	!	!	!	!	!	!	!	!LO:SIC:o:s=:v:niejednoznaczny zapis artykulacji [przyjęto staccatissimo]&colon;global	!	!	!	!	!	!	!LO:TX:a:t=1.	!	!LO:TX:a:t=1.
*	*	*	*	*	*	*	*ij	*	*ij	*	*ij	*	*ij	*	*	*	*	*	*
!	!	!	!	!	!	!	!	!	!	!	!	!	!	!	!	!	!LO:N:vis=1	!	!LO:N:vis=1
8A\L	.	.	8a/L	.	8cc#\L	8A\	Chri-	8e\	Chri-	8a`\	Chri-	8cc#\	Chri-	4.ryy	4.ryy	4.ryy	4.r	.	4.r
8c#\	6	.	8a/	.	8cc#\	8c#\	-ste	8e\	-ste	8a`\	-ste	8cc#\	-ste	.	.	.	.	.	.
8A\J	.	.	8a/J	.	8cc#\J	8A\	e-	8e\	e-	8a`\	e-	8cc#\	e-	.	.	.	.	.	.
=19	=19	=19	=19	=19	=19	=19	=19	=19	=19	=19	=19	=19	=19	=19	=19	=19	=19	=19	=19
!LO:TX:t=P:problem:mixedbeam	!	!	!	!	!	!	!	!	!	!	!	!	!	!	!	!	!	!	!
.	.	.	.	.	8qqee/	.	.	.	.	8qqcc#/	.	8qqdd/	.	.	.	.	.	.	.
8E\L	3	.	16b/LL	.	16dd\LL	8E\	-lei-	8e\	-lei-	(16b\LL	-lei-	16dd\LL	-lei-	4.ryy	4.ryy	4.ryy	8r	.	8r
.	.	.	32a/L	.	32cc#\L	.	.	.	.	32a\L	.	32cc#\L	.	.	.	.	.	.	.
.	.	.	32b/JJJ	.	32dd\JJJ	.	.	.	.	32b\JJJ)	.	32dd\JJJ	.	.	.	.	.	.	.
8AA/J	.	.	8a/	.	8cc#\	8AA/	-son	8e\	-son	8a\	-son	8cc#\	-son	.	.	.	16r	.	16r
.	.	.	.	.	.	.	.	.	.	.	.	.	.	.	.	.	16cc#X\KL	.	16aa`\LL
8r	.	.	8r	.	8r	8r	.	8r	.	8r	.	8r	.	.	.	.	8cc#\J	.	(16gg#X\
.	.	.	.	.	.	.	.	.	.	.	.	.	.	.	.	.	.	.	16aa\JJ)
*	*	*	*	*	*	*	*Xij	*	*Xij	*	*Xij	*	*Xij	*	*	*	*	*	*
=20	=20	=20	=20	=20	=20	=20	=20	=20	=20	=20	=20	=20	=20	=20	=20	=20	=20	=20	=20
!	!	!	!	!	!	!	!	!	!	!LO:LB:g=original	!	!	!	!	!	!	!	!	!
!	!	!	!	!	!	!	!	!	!	!	!	!	!	!	!	!	!LO:TX:a:t=1.	!	!LO:TX:a:t=1.
!	!	!	!	!	!	!	!	!	!	!	!	!	!	!	!	!	!LO:N:vis=1	!	!LO:N:vis=1
8r	.	.	4a/	.	4aa\	4.C#/	Chri-	(4e\	(Chris)-	4.a\	(Chris)-	(4aa\	Chri-	4.ryy	4.ryy	4.ryy	4.r	.	4.r
8C#/L	6	.	.	.	.	.	.	.	.	.	.	.	.	.	.	.	.	.	.
8C#/J	.	.	8e/	.	8ee\	.	.	8c#\)	.	.	.	8ee\)	.	.	.	.	.	.	.
=21	=21	=21	=21	=21	=21	=21	=21	=21	=21	=21	=21	=21	=21	=21	=21	=21	=21	=21	=21
.	.	.	.	.	.	.	.	.	.	.	.	8qqee#X/	.	.	.	.	.	.	.
8r	.	.	4f#/	.	4ff#\	4D/	-ste	(4d\	-te	4a\	-te	4ff#\	-ste	4.ryy	4.ryy	4.ryy	8r	.	8r
!	!	!	!	!	!	!	!	!	!	!	!	!	!	!	!	!	!LO:N:vis=16	!	!
8d\L	.	.	.	.	.	.	.	.	.	.	.	.	.	.	.	.	8r	.	8r
!	!	!	!	!	!	!	!	!	!	!	!	!LO:LB:g=original	!	!	!	!	!	!	!
8B\J	3	.	8d/	.	8dd\	8D/	e-	8B\)	e-	8a\	e-	8dd\	e-	.	.	.	8b\	.	8dd\
=22	=22	=22	=22	=22	=22	=22	=22	=22	=22	=22	=22	=22	=22	=22	=22	=22	=22	=22	=22
!	!	!	!LO:LB:g=original	!	!	!	!	!LO:LB:g=original	!	!	!	!	!	!	!	!	!	!	!
!LO:TX:t=P:problem:mixedbeam	!	!	!	!	!LO:SIC:o:s=:v:niejednoznaczny zapis artykulacji [przyjęto staccatissimo]&colon;global	!	!	!	!	!	!	!	!	!	!	!	!	!	!
8A\L	3	.	16c#/LL	.	16cc#`\LL	(8C#/	-lei-	(4c#\	-lei-	(16a\LL	-lei-	16cc#\LL	-lei-	4.ryy	4.ryy	4.ryy	8a/	.	16cc#X`\LL
.	.	.	32d/L	.	(32dd\L	.	.	.	.	32b\L	.	32dd\L	.	.	.	.	.	.	(32dd\L
.	.	.	32e/JJJ	.	32ee\JJJ)	.	.	.	.	32cc#\JJJ)	.	32ee\JJJ	.	.	.	.	.	.	32ee\JJJ)
8E\	4	.	8A/L	.	8a/L	4E\)	.	.	.	4e\	.	8a\L	.	.	.	.	8cc#X\L	.	8aa`\L
8EE/J	3	.	8G#/J	.	8g#X/J	.	.	8B\)	.	.	.	8g#\J	.	.	.	.	8b\J	.	8gg#X`\J
=23	=23	=23	=23	=23	=23	=23	=23	=23	=23	=23	=23	=23	=23	=23	=23	=23	=23	=23	=23
!	!	!	!	!	!	!LO:LB:g=original	!	!	!	!	!	!	!	!	!	!	!	!	!
!LO:TX:t=P:problem:mixedbeam	!	!	!	!	!	!	!	!	!	!	!	!	!	!	!	!	!	!	!
16AA/LL	.	.	4A/	.	4a/	4AA/	-son	4c#\	-son	4e\	-son	4a\	-son	4.ryy	4.ryy	4.ryy	8cc#X\	.	4aa\
16F#`\	.	.	.	.	.	.	.	.	.	.	.	.	.	.	.	.	.	.	.
16E`\	.	.	.	.	.	.	.	.	.	.	.	.	.	.	.	.	8r	.	.
16D`\	.	.	.	.	.	.	.	.	.	.	.	.	.	.	.	.	.	.	.
16C#`\	.	.	8r	.	8r	8r	.	8r	.	8r	.	8r	.	.	.	.	8r	.	8r
16BB`\JJ	.	.	.	.	.	.	.	.	.	.	.	.	.	.	.	.	.	.	.
=24	=24	=24	=24	=24	=24	=24	=24	=24	=24	=24	=24	=24	=24	=24	=24	=24	=24	=24	=24
!LO:LB:g=original	!	!	!	!	!LO:LB:g=original	!	!	!	!	!	!	!	!	!	!	!	!	!	!
!	!	!	!	!	!	!	!	!	!	!	!	!	!	!	!	!	!LO:TX:a:t=1.	!	!LO:TX:a:t=1.
*	*	*	*	*	*	*	*ij	*	*ij	*	*	*	*ij	*	*	*	*	*	*
!	!	!	!	!	!	!	!	!	!	!	!	!	!	!	!	!	!LO:N:vis=1	!	!LO:N:vis=1
8AA/L	6	.	4a/	.	4aa\	4.C#/	Chri-	(4e\	Chri-	4.a\	(Chris)-	(4aa\	Chri-	4.ryy	4.ryy	4.ryy	4.r	.	4.r
8C#/	.	.	.	.	.	.	.	.	.	.	.	.	.	.	.	.	.	.	.
8C#/J	.	.	8a/	.	8ee\	.	.	8c#\)	.	.	.	8ee\)	.	.	.	.	.	.	.
=25	=25	=25	=25	=25	=25	=25	=25	=25	=25	=25	=25	=25	=25	=25	=25	=25	=25	=25	=25
.	.	.	.	.	8qqee#X/	.	.	.	.	.	.	.	.	.	.	.	.	.	.
8r	.	.	4a/	.	4ff#\	4D\	-ste	(4d\	-ste	4a\	-te	4ff#\	-ste	4.ryy	4.ryy	4.ryy	8r	.	8r
8D\L	3	.	.	.	.	.	.	.	.	.	.	.	.	.	.	.	8r	.	8r
*	*	*	*	*	*	*	*	*	*	*	*	*	*Xij	*	*	*	*	*	*
8G#\J	6 5	.	8b/	.	8dd\	8G#\	e-	8B\)	e-	8a\	e-	8dd\	e-	.	.	.	8dd\	.	8bb\
=26	=26	=26	=26	=26	=26	=26	=26	=26	=26	=26	=26	=26	=26	=26	=26	=26	=26	=26	=26
!	!	!	!	!	!	!	!	!	!	!	!	!	!	!	!	!	!	!	!LO:LB:g=original
8A\L	.	.	8a/L	.	8cc#\L	8A\	-lei-	8A\	-lei-	8a\	-lei-	(8cc#\L	-lei-	4.ryy	4.ryy	4.ryy	8cc#X\L	.	(8aa\L
8G#\	6 5	.	8b/	.	8dd\	8G#\	-son	8e\	-son	8b\	-son	8dd\	.	.	.	.	8dd\	.	8bb\)
*	*	*	*	*	*	*	*Xij	*	*Xij	*	*ij	*	*	*	*	*	*	*	*
8A\J	.	.	8a/J	.	8cc#\J	8A\	e-	8e\	e-	8a\	e-	8cc#\J)	.	.	.	.	8cc#\J	.	8aa`\J
=27	=27	=27	=27	=27	=27	=27	=27	=27	=27	=27	=27	=27	=27	=27	=27	=27	=27	=27	=27
8e\L	.	.	8a/L	.	8cc#\L	8e\	-lei-	8e\	-lei-	8a\	-lei-	8cc#\	.	4.ryy	4.ryy	4.ryy	8cc#X\L	.	8aa`\L
8E\J	.	.	8g#/J	.	8b\J	8E\	-son	8e\	-son	8g#\	-son	8b\	-son	.	.	.	8b\J	.	8gg#X`\J
8r	.	.	8r	.	8r	8r	.	8r	.	8r	.	8r	.	.	.	.	8r	.	8r
*	*	*	*	*	*	*	*	*	*	*	*Xij	*	*	*	*	*	*	*	*
=28	=28	=28	=28	=28	=28	=28	=28	=28	=28	=28	=28	=28	=28	=28	=28	=28	=28	=28	=28
8r	.	.	8r	.	4.dd#X\	4.A\	Chri-	4.c#\	(Chri)-	4.f#\	(Chris)-	4.dd#X\	Chri-	4.ryy	4.ryy	4.ryy	4.dd#X\	.	4.ff#X\
8A\L	.	.	8f#/L	.	.	.	.	.	.	.	.	.	.	.	.	.	.	.	.
8A\J	.	.	8f#/J	.	.	.	.	.	.	.	.	.	.	.	.	.	.	.	.
=29	=29	=29	=29	=29	=29	=29	=29	=29	=29	=29	=29	=29	=29	=29	=29	=29	=29	=29	=29
4G#\	.	.	16a/LL	.	(16ee\LL	8G#\	-ste	8c#\	-ste	8g#\	-te	8ee\	-ste	4.ryy	4.ryy	4.ryy	4b\	.	4ee\
.	.	.	16b/	.	16bb\	.	.	.	.	.	.	.	.	.	.	.	.	.	.
.	.	.	16a/	.	16aa\	8r	.	8r	.	8r	.	8r	.	.	.	.	.	.	.
.	.	.	16g#/	.	16gg#\	.	.	.	.	.	.	.	.	.	.	.	.	.	.
8r	.	.	16f#/	.	16ff#\	8r	.	8r	.	8r	.	8r	.	.	.	.	8r	.	8r
.	.	.	16e/JJ	.	16ee\JJ)	.	.	.	.	.	.	.	.	.	.	.	.	.	.
=30	=30	=30	=30	=30	=30	=30	=30	=30	=30	=30	=30	=30	=30	=30	=30	=30	=30	=30	=30
!	!	!	!	!	!	!	!	!	!	!	!	!	!	!	!	!	!LO:LB:g=original	!	!
*	*	*	*	*	*	*	*ij	*	*ij	*	*ij	*	*ij	*	*	*	*	*	*
8r	.	.	8r	.	4.dd#X\	4.A\	Chri-	4.c#\	Chri-	4.f#\	Chri-	4.dd#X\	Chri-	4.ryy	4.ryy	4.ryy	4.dd#X\	.	4.ff#\
8A\L	4+	.	8f#/L	.	.	.	.	.	.	.	.	.	.	.	.	.	.	.	.
8A\J	.	.	8f#/J	.	.	.	.	.	.	.	.	.	.	.	.	.	.	.	.
=31	=31	=31	=31	=31	=31	=31	=31	=31	=31	=31	=31	=31	=31	=31	=31	=31	=31	=31	=31
4G#\	6	.	8g#/	.	8ee\	8G#\	-ste	8c#\	-ste	8g#\	-ste	8ee\	-ste	4.ryy	4.ryy	4.ryy	4b\	.	4ee\
.	.	.	8r	.	8r	8r	.	8r	.	8r	.	8r	.	.	.	.	.	.	.
8r	.	.	8r	.	8r	8r	.	8r	.	8r	.	8r	.	.	.	.	8r	.	8r
=32	=32	=32	=32	=32	=32	=32	=32	=32	=32	=32	=32	=32	=32	=32	=32	=32	=32	=32	=32
!	!	!	!	!	!	!	!	!LO:LB:g=original	!	!LO:LB:g=original	!	!LO:LB:g=original	!	!	!	!	!	!	!
*	*	*	*tremolo	*	*	*	*	*	*	*	*	*	*	*	*	*	*	*	*
!	!	!	!	!	!	!	!	!	!	!	!	!	!	!	!	!	!LO:TX:a:t=1.	!	!LO:TX:a:t=1.
8A\L	6	.	16cc#\LL	.	8ff#\L	8A\	Chri-	8A\	Chri-	8cc#\	Chri-	8ff#\	Chri-	4.ryy	4.ryy	4.ryy	4.r	.	4.r
.	.	.	16cc#\	.	.	.	.	.	.	.	.	.	.	.	.	.	.	.	.
8A\	6	.	16cc#\	.	8ff#\	8A\	-ste	8c#\	-ste	8cc#\	-ste	8ff#\	-ste	.	.	.	.	.	.
.	.	.	16cc#\	.	.	.	.	.	.	.	.	.	.	.	.	.	.	.	.
*	*	*	*	*	*	*	*Xij	*	*Xij	*	*Xij	*	*Xij	*	*	*	*	*	*
8G#\J	6	.	16cc#\	.	8ee\J	8G#\	e-	8c#\	e-	8cc#\	e-	8ee\	e-	.	.	.	.	.	.
.	.	.	16cc#\JJ	.	.	.	.	.	.	.	.	.	.	.	.	.	.	.	.
*	*	*	*Xtremolo	*	*	*	*	*	*	*	*	*	*	*	*	*	*	*	*
=33	=33	=33	=33	=33	=33	=33	=33	=33	=33	=33	=33	=33	=33	=33	=33	=33	=33	=33	=33
!	!	!	!	!	!	!LO:LB:g=original	!	!	!	!	!	!	!	!	!	!	!	!	!
8F#\L	3	.	8f#/L	.	8dd#X\L	8F#\	-lei-	8B\	-lei-	8f#\	-lei-	8dd#X\	-lei-	4.ryy	4.ryy	4.ryy	8r	.	8r
8E\	.	.	8g#/J	.	8ee\J	8E\	-son	8B\	-son	8g#\	-son,	8ee\	-son	.	.	.	8r	.	8r
8G#\J	.	.	16r	.	16r	16r	.	16r	.	16r	.	16r	.	.	.	.	8b\	.	8gg#X\
*	*	*	*	*	*	*	*	*	*ij	*	*	*	*ij	*	*	*	*	*	*
.	.	.	16g#/	.	16b\	16G#\	e-	16B\	e-	16g#\	e-	16b\	e-	.	.	.	.	.	.
=34	=34	=34	=34	=34	=34	=34	=34	=34	=34	=34	=34	=34	=34	=34	=34	=34	=34	=34	=34
!	!	!	!LO:LB:g=original	!	!	!	!	!	!	!	!	!	!	!	!	!	!	!	!
!LO:TX:t=P:problem:mixedbeam	!	!	!	!	!	!LO:TX:t=P:problem:mixedbeam	!	!	!	!	!	!	!	!	!	!	!	!	!
*	*	*	*	*	*	*	*	*	*	*	*ij	*	*	*	*	*	*	*	*
8A\L	5	.	16a/LL	.	16cc#\LL	8A\L	-lei-	(8c#\	-lei-	16a\LL	-lei-	16cc#\LL	-lei-	4.ryy	4.ryy	4.ryy	8cc#X\L	.	8aa`\L
.	.	.	32g#/L	.	32b\L	.	.	.	.	32g#\L	.	32b\L	.	.	.	.	.	.	.
.	.	.	32f#/JJJ	.	32a\JJJ	.	.	.	.	32f#\JJJ	.	32a\JJJ	.	.	.	.	.	.	.
8B\	4	.	8e/L	.	8g#/L	8B\	.	4B\)	.	(8e\L	.	8g#/L	.	.	.	.	8b\	.	8gg#X`\
8BB/J	3	.	8d#X/J	.	8f#/J	8BB/J	.	.	.	8d#X\J	.	8f#/J	.	.	.	.	8b\J	.	8ff#X`\J
=35	=35	=35	=35	=35	=35	=35	=35	=35	=35	=35	=35	=35	=35	=35	=35	=35	=35	=35	=35
!LO:TX:t=P:problem:mixedbeam	!	!	!	!	!	!	!	!	!	!	!	!	!	!	!	!	!	!	!
8E\L	.	.	8e/	.	4e/	4E\	-son	4B\	-son	8e`\)	-son	4e/	-son	4.ryy	4.ryy	4.ryy	4b\	.	4ee\
8EE/J	.	.	8r	.	.	.	.	.	.	8r	.	.	.	.	.	.	.	.	.
8r	.	.	8r	.	8r	8r	.	8r	.	8r	.	8r	.	.	.	.	8r	.	8r
*	*	*	*	*	*	*	*	*	*Xij	*	*	*	*Xij	*	*	*	*	*	*
=36	=36	=36	=36	=36	=36	=36	=36	=36	=36	=36	=36	=36	=36	=36	=36	=36	=36	=36	=36
!	!	!	!	!	!	!	!	!	!	!	!	!	!	!	!	!	!LO:TX:a:t=3.	!	!LO:TX:a:t=3.
!	!	!	!	!	!	!	!	!	!	!	!	!	!	!	!	!	!LO:N:vis=0	!	!LO:N:vis=0
8r	.	.	8r	.	8ee\L	8r	.	8r	.	8r	.	8ee\	Chri-	4.ryy	4.ryy	4.ryy	2.r	.	2.r
8r	.	.	8r	.	16ddn\L	8r	.	8r	.	8r	.	16ddn\LL	-ste	.	.	.	.	.	.
.	.	.	.	.	16cc#\	.	.	.	.	.	.	16cc#\JJ	.	.	.	.	.	.	.
*	*	*	*	*	*	*	*	*	*	*	*Xij	*	*	*	*	*	*	*	*
8E\	4+	.	8f#/	.	16b\	8E\	e-	8c#\	e-	8f#\	e-	16b\LL	e-	.	.	.	.	.	.
.	.	.	.	.	16a#X\JJ	.	.	.	.	.	.	16a#X\JJ	.	.	.	.	.	.	.
=37	=37	=37	=37	=37	=37	=37	=37	=37	=37	=37	=37	=37	=37	=37	=37	=37	=37	=37	=37
!	!	!	!	!	!LO:LB:g=original	!	!	!	!	!	!	!	!	!	!	!	!	!	!
8D/L	6	.	4.f#/	.	8.b`\L	8D/L	-lei-	8.d\L	-lei-	4.f#\	-lei-	8.b\L	-lei-	4.ryy	4.ryy	4.ryy	.	.	.
8C#/	.	.	.	.	.	8C#/	.	.	.	.	.	.	.	.	.	.	.	.	.
.	.	.	.	.	(16dd\L	.	.	(16B\L	.	.	.	16dd\L	.	.	.	.	.	.	.
8BB/J	.	.	.	.	16cc#\	8BB/J	.	16A#X\	.	.	.	16cc#\	.	.	.	.	.	.	.
.	.	.	.	.	16b\JJ)	.	.	16B\JJ)	.	.	.	16b\JJ	.	.	.	.	.	.	.
=38	=38	=38	=38	=38	=38	=38	=38	=38	=38	=38	=38	=38	=38	=38	=38	=38	=38	=38	=38
!LO:LB:g=original	!	!	!	!	!	!	!	!	!	!	!	!	!	!	!	!	!	!	!
!	!	!	!	!	!	!	!	!	!	!	!	!LO:N:vis=8	!	!	!	!	!	!	!
8A#X\L	6 5	.	4.f#/	.	8.cc#`\L	8A#X\L	.	(8.A#X\L	.	4.f#\	.	8.cc#\L	.	4.ryy	4.ryy	4.ryy	4.r	.	4.r
8G#\	.	.	.	.	.	8G#\	.	.	.	.	.	.	.	.	.	.	.	.	.
.	.	.	.	.	(16ee\L	.	.	16c#\L	.	.	.	16ee\L	.	.	.	.	.	.	.
8F#\J	.	.	.	.	16dd\	8F#\J	.	16B\	.	.	.	16dd\	.	.	.	.	.	.	.
.	.	.	.	.	16cc#\JJ)	.	.	16A#\JJ)	.	.	.	16cc#\JJ	.	.	.	.	.	.	.
=39	=39	=39	=39	=39	=39	=39	=39	=39	=39	=39	=39	=39	=39	=39	=39	=39	=39	=39	=39
!	!	!	!	!	!	!	!	!	!	!LO:LB:g=original	!	!	!	!	!	!	!	!	!
4B\	5	.	8f#/	.	4dd\	8B\	-son	8B\	-son	8f#\	-son	8dd\	-son	4.ryy	4.ryy	4.ryy	16r	.	16r
.	.	.	.	.	.	.	.	.	.	.	.	.	.	.	.	.	16dd`\LL	.	16bb`\LL
.	.	.	8r	.	.	8r	.	8r	.	8r	.	8r	.	.	.	.	(16cc#X\	.	(16aa#X\
.	.	.	.	.	.	.	.	.	.	.	.	.	.	.	.	.	16dd\)	.	16bb\)
8r	.	.	8r	.	8r	8r	.	8r	.	8r	.	8r	.	.	.	.	(16cc#X\	.	(16aa#\
.	.	.	.	.	.	.	.	.	.	.	.	.	.	.	.	.	16dd\JJ)	.	16bb\JJ)
=40	=40	=40	=40	=40	=40	=40	=40	=40	=40	=40	=40	=40	=40	=40	=40	=40	=40	=40	=40
!	!	!	!	!	!	!	!	!LO:LB:g=original	!	!	!	!LO:LB:g=original	!	!	!	!	!	!	!
!	!	!	!	!	!	!	!	!	!	!	!	!	!	!	!	!	!LO:TX:a:t=3.	!	!LO:TX:a:t=3.
!	!	!	!	!	!	!	!	!	!	!	!	!	!	!	!	!	!LO:N:vis=0	!	!LO:N:vis=0
8r	.	.	8r	.	8dd`\L	8r	.	8r	.	8r	.	8dd\	Chri-	4.ryy	4.ryy	4.ryy	2.r	.	2.r
8r	.	.	8r	.	(16cc#\L	8r	.	8r	.	8r	.	(16cc#\LL	-ste	.	.	.	.	.	.
.	.	.	.	.	16b\	.	.	.	.	.	.	16b\JJ)	.	.	.	.	.	.	.
8BB/	4 2	.	8e/	.	16an\	8D/	e-	8B\	e-	8e\	e-	16a\LL	e-	.	.	.	.	.	.
.	.	.	.	.	16g#\JJ)	.	.	.	.	.	.	16g#\JJ	.	.	.	.	.	.	.
=41	=41	=41	=41	=41	=41	=41	=41	=41	=41	=41	=41	=41	=41	=41	=41	=41	=41	=41	=41
8C#/L	6	.	4.e/	.	(8.a/L	8C#/L	-lei-	8.c#\L	-lei-	4.e\	-lei-	8.a\L	-lei-	4.ryy	4.ryy	4.ryy	.	.	.
8BB/	.	.	.	.	.	8BB/	.	.	.	.	.	.	.	.	.	.	.	.	.
.	.	.	.	.	16cc#/L	.	.	16An\L	.	.	.	16cc#\L	.	.	.	.	.	.	.
8AA/J	.	.	.	.	16b/	8AA/J	.	16G#\	.	.	.	16b\	.	.	.	.	.	.	.
.	.	.	.	.	16a/JJ)	.	.	16A\JJ	.	.	.	16a\JJ	.	.	.	.	.	.	.
=42	=42	=42	=42	=42	=42	=42	=42	=42	=42	=42	=42	=42	=42	=42	=42	=42	=42	=42	=42
8G#\L	6	.	4.e/	.	(8.b\L	8G#\L	.	8.G#/L	.	4.e\	.	8.b\L	.	4.ryy	4.ryy	4.ryy	4.r	.	4.r
8F#\	.	.	.	.	.	8F#\	.	.	.	.	.	.	.	.	.	.	.	.	.
.	.	.	.	.	16dd\L	.	.	16B/L	.	.	.	16dd\L	.	.	.	.	.	.	.
8E\J	.	.	.	.	16cc#\	8E\J	.	16A/	.	.	.	16cc#\	.	.	.	.	.	.	.
.	.	.	.	.	16b\JJ)	.	.	16G#/JJ	.	.	.	16b\JJ	.	.	.	.	.	.	.
=43	=43	=43	=43	=43	=43	=43	=43	=43	=43	=43	=43	=43	=43	=43	=43	=43	=43	=43	=43
!	!	!	!	!	!	!LO:LB:g=original	!	!	!	!	!	!	!	!	!	!	!	!	!LO:LB:g=original
!	!	!	!LO:TX:t=P:problem:mixedbeam	!	!	!	!	!	!	!	!	!	!	!	!	!	!	!	!
8A\L	3 1	.	8e/L	.	8cc#\L	8A\	-son	8A\	-son	8e\	-son	8cc#\	-son	4.ryy	4.ryy	4.ryy	8r	.	8r
8F#\	.	.	8cc#\	.	8aa\	8r	.	8r	.	8r	.	8r	.	.	.	.	8r	.	8r
*	*	*	*	*	*	*	*ij	*	*ij	*	*ij	*	*ij	*	*	*	*	*	*
8D#X\J	.	.	8a\J	.	8cc#\J	8D#X\	e-	8f#\	e-	8a\	e-	8cc#\	e-	.	.	.	8cc#X`\	.	8aa`\
=44	=44	=44	=44	=44	=44	=44	=44	=44	=44	=44	=44	=44	=44	=44	=44	=44	=44	=44	=44
4E\	6 4	.	8a/L	.	8cc#\L	8E\	-lei-	8e\	-lei-	8a\	-lei-	8cc#\	-lei-	4.ryy	4.ryy	4.ryy	8cc#`\L	.	8aa`\L
.	.	.	8g#/J	.	8b\J	8E\	-son	8e\	-son	8g#\	-son	8b\	-son	.	.	.	8b`\J	.	8gg#X`\J
8r	5 3	.	8r	.	8r	8r	.	8r	.	8r	.	8r	.	.	.	.	8r	.	8r
*	*	*	*	*	*	*	*Xij	*	*Xij	*	*Xij	*	*Xij	*	*	*	*	*	*
=45	=45	=45	=45	=45	=45	=45	=45	=45	=45	=45	=45	=45	=45	=45	=45	=45	=45	=45	=45
4.Dn\	4 2	.	4.B/	.	4.g#/	4.Dn/	(Chri)-	4.B\	(Chri)-	4.e\	(Chris)-	4.g#\	(Chris)-	4.ryy	4.ryy	4.ryy	4.b\	.	4.dd\
=46	=46	=46	=46	=46	=46	=46	=46	=46	=46	=46	=46	=46	=46	=46	=46	=46	=46	=46	=46
4C#/	6	.	16c#/LL	.	(16a\LL	8C#/	-ste	8B\	-ste	8e\	-te	8a\	-te	4.ryy	4.ryy	4.ryy	8a/	.	8cc#X`\
.	.	.	16e/	.	16ee\	.	.	.	.	.	.	.	.	.	.	.	.	.	.
.	.	.	16d/	.	16dd\	8r	.	8r	.	8r	.	8r	.	.	.	.	8r	.	8r
.	.	.	16c#/	.	16cc#\	.	.	.	.	.	.	.	.	.	.	.	.	.	.
8r	.	.	16B/	.	16b\	8r	.	8r	.	8r	.	8r	.	.	.	.	8r	.	8r
.	.	.	16A/JJ	.	16a\JJ)	.	.	.	.	.	.	.	.	.	.	.	.	.	.
=47	=47	=47	=47	=47	=47	=47	=47	=47	=47	=47	=47	=47	=47	=47	=47	=47	=47	=47	=47
*	*	*	*	*	*	*	*ij	*	*ij	*	*	*	*ij	*	*	*	*	*	*
4.D\	2	.	4.B/	.	4.g#/	4.D/	Chri-	4.B\	Chri-	4.e\	(Chri)-	4.g#\	Chri-	4.ryy	4.ryy	4.ryy	4.b/	.	4.dd\
=48	=48	=48	=48	=48	=48	=48	=48	=48	=48	=48	=48	=48	=48	=48	=48	=48	=48	=48	=48
!	!	!	!	!	!LO:LB:g=original	!	!	!	!	!LO:LB:g=original	!	!	!	!	!	!	!LO:LB:g=original	!	!
8C#\	6	.	8c#/L	.	8a/	8C#/	-ste	8c#\	-ste	8e\	-ste	8a\	-ste	4.ryy	4.ryy	4.ryy	8a/	.	8cc#X`\
*	*	*	*	*	*	*	*	*	*	*	*ij	*	*	*	*	*	*	*	*
8r	.	.	8a/	.	8r	8r	.	8r	.	8a\	Chri-	8r	.	.	.	.	8r	.	8r
*	*	*	*	*	*	*	*Xij	*	*Xij	*	*	*	*Xij	*	*	*	*	*	*
!	!	!	!	!	!	!	!	!	!	!	!	!LO:SIC:o:s=:v:niejednoznaczny zapis artykulacji [przyjęto staccatissimo]&colon;global	!	!	!	!	!	!	!
8c#\	6	.	8a/J	.	8ee\	8c#\	e-	8c#\	e-	8a\	-ste	8ee`\	e-	.	.	.	8cc#X\	.	8ee\
=49	=49	=49	=49	=49	=49	=49	=49	=49	=49	=49	=49	=49	=49	=49	=49	=49	=49	=49	=49
!	!	!	!	!	!	!	!	!LO:LB:g=original	!	!	!	!	!	!	!	!	!	!	!
4.d\	.	.	4.a/	.	4.ff#\	4.d\	-lei-	4.d\	-lei-	4.a\	Chri-	(16ff#\LL	-lei-	4.ryy	4.ryy	4.ryy	4.dd\	.	4.ff#X\
.	.	.	.	.	.	.	.	.	.	.	.	16dd\JJ)	.	.	.	.	.	.	.
.	.	.	.	.	.	.	.	.	.	.	.	8a\	-son	.	.	.	.	.	.
!	!	!	!	!	!	!	!	!	!	!	!	!LO:LB:g=original	!	!	!	!	!	!	!
.	.	.	.	.	.	.	.	.	.	.	.	16r	.	.	.	.	.	.	.
*	*	*	*	*	*	*	*	*	*	*	*	*	*ij	*	*	*	*	*	*
.	.	.	.	.	.	.	.	.	.	.	.	16ff#\	e-	.	.	.	.	.	.
=50	=50	=50	=50	=50	=50	=50	=50	=50	=50	=50	=50	=50	=50	=50	=50	=50	=50	=50	=50
!	!	!	!LO:LB:g=original	!	!	!	!	!	!	!	!	!	!	!	!	!	!	!	!
4.c#\	6	.	4.a/	.	4.ee\	4.c#\	.	4.c#\	.	4.a\	-ste	16ee\LL	-lei-	4.ryy	4.ryy	4.ryy	4.cc#X\	.	4.ee\
.	.	.	.	.	.	.	.	.	.	.	.	16cc#\JJ	.	.	.	.	.	.	.
.	.	.	.	.	.	.	.	.	.	.	.	8a\	-son	.	.	.	.	.	.
.	.	.	.	.	.	.	.	.	.	.	.	16r	.	.	.	.	.	.	.
*	*	*	*	*	*	*	*	*	*	*	*Xij	*	*Xij	*	*	*	*	*	*
.	.	.	.	.	.	.	.	.	.	.	.	16ee\	e-	.	.	.	.	.	.
=51	=51	=51	=51	=51	=51	=51	=51	=51	=51	=51	=51	=51	=51	=51	=51	=51	=51	=51	=51
!LO:TX:t=P:problem:mixedbeam	!	!	!	!	!LO:N:vis=16.	!LO:TX:t=P:problem:mixedbeam	!	!	!	!	!	!	!	!	!	!	!	!	!
8d\L	6	.	16dd\LL	.	16ff#\LL	8d\L	.	8d\	.	16dd`\LL	e-	16ff#\LL	-lei-	4.ryy	4.ryy	4.ryy	8b`\	.	(16ff#\LL
.	.	.	32cc#\L	.	32ee\L	.	.	.	.	(32cc#\L	.	32ee\L	.	.	.	.	.	.	16dd\JJ)
.	.	.	32b\JJJ	.	32dd\JJJ	.	.	.	.	32b\JJJ)	.	32dd\JJJ	.	.	.	.	.	.	.
8e\	4	.	8a/L	.	8cc#\L	8e\	.	4e\	.	8a\L	-lei-	8cc#\L	.	.	.	.	(8a/L	.	8cc#X`\L
8E\J	3	.	8g#/J	.	8b\J	8E\J	.	.	.	8g#\J	.	8b\J	.	.	.	.	8g#X/J)	.	8b`\J
=52	=52	=52	=52	=52	=52	=52	=52	=52	=52	=52	=52	=52	=52	=52	=52	=52	=52	=52	=52
8A\	.	.	8a/L	.	8a/	8G#\	-son	8e\	-son	8a\	-son	8a\	-son	4.ryy	4.ryy	4.ryy	4a/	.	8a/
8r	.	.	8a/	.	8r	8r	.	8r	.	8a\	(Chris)-	8r	.	.	.	.	.	.	8r
*	*	*	*	*	*	*	*	*	*ij	*	*	*	*ij	*	*	*	*	*	*
8AA/	6	.	8a/J	.	8ee\	8C#/	e-	8c#\	e-	8a\	-te	8ee\	e-	.	.	.	8r	.	8ee\
=53	=53	=53	=53	=53	=53	=53	=53	=53	=53	=53	=53	=53	=53	=53	=53	=53	=53	=53	=53
!LO:LB:g=original	!	!	!	!	!	!LO:LB:g=original	!	!	!	!	!	!	!	!	!	!	!	!	!
*	*	*	*	*	*	*	*	*	*	*	*ij	*	*	*	*	*	*	*	*
4.D\	.	.	4.a/	.	4.ff#\	4.D/	-lei-	4.d\	-lei-	4.a\	Chri-	16ff#\LL	-lei-	4.ryy	4.ryy	4.ryy	4.dd\	.	4.ff#\
.	.	.	.	.	.	.	.	.	.	.	.	16ee\JJ	.	.	.	.	.	.	.
.	.	.	.	.	.	.	.	.	.	.	.	8a\	-son	.	.	.	.	.	.
.	.	.	.	.	.	.	.	.	.	.	.	16r	.	.	.	.	.	.	.
.	.	.	.	.	.	.	.	.	.	.	.	16ff#\	e-	.	.	.	.	.	.
=54	=54	=54	=54	=54	=54	=54	=54	=54	=54	=54	=54	=54	=54	=54	=54	=54	=54	=54	=54
4C#/	6	.	4a/	.	4ee\	8C#/	-son	4c#\	-son	4a\	-ste	16ee\LL	-lei-	4.ryy	4.ryy	4.ryy	4cc#X\	.	4ee\
.	.	.	.	.	.	.	.	.	.	.	.	16cc#\JJ	.	.	.	.	.	.	.
.	.	.	.	.	.	8r	.	.	.	.	.	8a\	-son	.	.	.	.	.	.
8G#\	6 5	.	8b/	.	8dd\	8G#\	e-	16r	.	16r	.	16r	.	.	.	.	8b\	.	8dd\
*	*	*	*	*	*	*	*	*	*	*	*Xij	*	*Xij	*	*	*	*	*	*
.	.	.	.	.	.	.	.	16e\	e-	16b\	e-	16dd\	e-	.	.	.	.	.	.
=55	=55	=55	=55	=55	=55	=55	=55	=55	=55	=55	=55	=55	=55	=55	=55	=55	=55	=55	=55
!LO:TX:t=P:problem:mixedbeam	!	!	!	!	!LO:N:vis=16.	!LO:TX:t=P:problem:mixedbeam	!	!	!	!	!	!	!	!	!	!	!	!	!
8A\L	.	.	16a/LL	.	16cc#\LL	8A\L	-lei-	8d\L	-lei-	8a`\L	-lei-	16cc#\LL	-lei-	4.ryy	4.ryy	4.ryy	8a\	.	16cc#X\LL
.	.	.	32b/L	.	32dd\L	.	.	.	.	.	.	32dd\L	.	.	.	.	.	.	16ee\JJ
.	.	.	32cc#/JJJ	.	32ee\JJJ	.	.	.	.	.	.	32ee\JJJ	.	.	.	.	.	.	.
8E\	4	.	8c#/L	.	8a/L	8E\	.	8c#\	.	(16b\L	.	8a\L	.	.	.	.	(8ee\L	.	8aa\L
.	.	.	.	.	.	.	.	.	.	16cc#\JJ)	.	.	.	.	.	.	.	.	.
!	!	!	!	!	!	!	!	!	!	!LO:N:vis=4	!	!	!	!	!	!	!	!	!
8EE/J	3	.	8B/J	.	8g#/J	8EE/J	.	8B\J	.	8e\	.	8g#\J	.	.	.	.	8dd\J)	.	8gg#X\J
=56	=56	=56	=56	=56	=56	=56	=56	=56	=56	=56	=56	=56	=56	=56	=56	=56	=56	=56	=56
!	!	!	!	!	!	!	!	!	!	!LO:LB:g=original	!	!	!	!	!	!	!	!	!
4AA/	#	.	8c#/	.	8a/	8AA/	-son	8c#\	-son	8e\	-son	8a\	-son	4.ryy	4.ryy	4.ryy	8cc#\	.	4aa\
.	.	.	8r	.	8r	8r	.	8r	.	8r	.	8r	.	.	.	.	8r	.	.
8r	.	.	8a/	.	8dd#X\	8r	.	8r	.	8r	.	8r	.	.	.	.	8r	.	8r
=57	=57	=57	=57	=57	=57	=57	=57	=57	=57	=57	=57	=57	=57	=57	=57	=57	=57	=57	=57
!	!	!	!	!	!	!	!	!	!	!	!	!LO:LB:g=original	!	!	!	!	!	!	!LO:LB:g=original
8r	.	.	8g#/	.	8ee\	8r	.	8r	.	8r	.	8r	.	4.ryy	4.ryy	4.ryy	8r	.	8r
8r	.	.	8r	.	8r	8r	.	8r	.	8r	.	8r	.	.	.	.	8r	.	8r
*	*	*	*	*	*	*	*	*	*Xij	*	*	*	*ij	*	*	*	*	*	*
8G#\	6 5	.	8b\	.	8ddn\	8G#\	e-	8e\	e-	8b\	e-	8dd\	e-	.	.	.	8b\	.	8dd\
=58	=58	=58	=58	=58	=58	=58	=58	=58	=58	=58	=58	=58	=58	=58	=58	=58	=58	=58	=58
!	!	!	!	!	!LO:LB:g=original	!	!	!	!	!	!	!	!	!	!	!	!	!	!
!LO:TX:t=P:problem:mixedbeam	!	!	!	!	!LO:N:vis=16.	!	!	!	!	!	!	!	!	!	!	!	!	!	!
8A\L	.	.	16a/LL	.	16cc#\LL	(8A\	-lei-	8e\L	-lei-	16a\LL	-lei-	16cc#\LL	-lei-	4.ryy	4.ryy	4.ryy	8a`\	.	(16cc#\LL
.	.	.	32b/L	.	32dd\L	.	.	.	.	32b\L	.	32dd\L	.	.	.	.	.	.	32dd\L
.	.	.	32cc#/JJJ	.	32ee\JJJ	.	.	.	.	32cc#\JJJ	.	32ee\JJJ	.	.	.	.	.	.	32ee\JJJ)
8E\	4	.	8c#/L	.	8a/L	4E\)	.	8c#\	.	4e\	.	8a\L	.	.	.	.	(8ee\L	.	8aa`\L
8EE/J	3	.	8B/J	.	8g#/J	.	.	8B\J	.	.	.	8g#\J	.	.	.	.	8dd\J)	.	8gg#X`\J
=59	=59	=59	=59	=59	=59	=59	=59	=59	=59	=59	=59	=59	=59	=59	=59	=59	=59	=59	=59
!	!	!	!	!	!	!	!	!LO:LB:g=original	!	!	!	!	!	!	!	!	!	!	!
!	!	!	!	!	!	!	!	!	!	!	!	!	!	!	!	!	!LO:SIC:o:s=:v:kreska taktowa pojedyncza	!	!
4AA/	#	.	4c#/	.	4a/	4AA/	-son	4c#\	-son	4e\	-son	4a\	-son	4.ryy	4.ryy	4.ryy	4cc#X\	.	4aa\
!LO:SIC:o:s=:v:kreska taktowa pojedyncza	!	!	!	!	!LO:SIC:o:s=:v:kreska taktowa końcowa	!LO:SIC:o:s=:v:kreska taktowa pojedyncza	!	!LO:SIC:o:s=:v:kreska taktowa pojedyncza	!	!LO:SIC:o:s=:v:kreska taktowa pojedyncza	!	!LO:SIC:o:s=:v:kreska taktowa pojedyncza	!	!	!	!	!	!	!LO:SIC:o:s=:v:kreska taktowa pojedyncza
8r	.	.	8r	.	8r	8r	.	8r	.	8r	.	8r	.	.	.	.	8r	.	8r
*	*	*	*	*	*	*	*	*	*	*	*	*	*Xij	*	*	*	*	*	*
=60||	=60||	=60||	=60||	=60||	=60||	=60||	=60||	=60||	=60||	=60||	=60||	=60||	=60||	=60||	=60||	=60||	=60||	=60||	=60||
!	!	!	!LO:TX:a:t=Da Capo	!	!LO:SIC:o:s=:v:brak oznaczenia Da Capo	!LO:TX:a:t=15	!	!LO:TX:b:t=15	!	!LO:TX:b:t=15	!	!LO:TX:a:t=15.	!	!	!	!	!LO:TX:a:t=1.	!	!LO:TX:a:t=1.
8AA/L	.	.	4.ryy	.	4.ryy	4.r	.	4.r	.	4.r	.	4.r	.	4.ryy	4.ryy	4.ryy	4.r	.	4.r
8C#/	6	.	.	.	.	.	.	.	.	.	.	.	.	.	.	.	.	.	.
8AA/J	.	.	.	.	.	.	.	.	.	.	.	.	.	.	.	.	.	.	.
=61	=61	=61	=61	=61	=61	=61	=61	=61	=61	=61	=61	=61	=61	=61	=61	=61	=61	=61	=61
!LO:TX:t=P:problem:mixedbeam	!	!	!	!	!	!	!	!	!	!	!	!	!	!	!	!	!	!	!
8E\L	4	.	4.ryy	.	4.ryy	4.r	.	4.r	.	4.r	.	4.r	.	4.ryy	4.ryy	4.ryy	8r	.	8r
8AA/J	3	.	.	.	.	.	.	.	.	.	.	.	.	.	.	.	16r	.	16r
.	.	.	.	.	.	.	.	.	.	.	.	.	.	.	.	.	16cc#X\KL	.	16aa`\LL
8r	.	.	.	.	.	.	.	.	.	.	.	.	.	.	.	.	8cc#\J	.	(16gg#X\
.	.	.	.	.	.	.	.	.	.	.	.	.	.	.	.	.	.	.	16aa\JJ)
=62	=62	=62	=62	=62	=62	=62	=62	=62	=62	=62	=62	=62	=62	=62	=62	=62	=62	=62	=62
!	!	!	!	!	!	!	!	!	!	!	!	!	!	!	!	!	!LO:LB:g=original	!	!
!	!	!	!	!	!	!	!	!	!	!	!	!	!	!	!	!	!LO:TX:a:t=1.	!	!LO:TX:a:t=1.
8A\L	.	.	4.ryy	.	4.ryy	4.r	.	4.r	.	4.r	.	4.r	.	4.ryy	4.ryy	4.ryy	4.r	.	4.r
8c#\	6	.	.	.	.	.	.	.	.	.	.	.	.	.	.	.	.	.	.
8A\J	.	.	.	.	.	.	.	.	.	.	.	.	.	.	.	.	.	.	.
=63	=63	=63	=63	=63	=63	=63	=63	=63	=63	=63	=63	=63	=63	=63	=63	=63	=63	=63	=63
!LO:TX:t=P:problem:mixedbeam	!	!	!	!	!	!	!	!	!	!	!	!	!	!	!	!	!	!	!
8E\L	3	.	4.ryy	.	4.ryy	4.r	.	4.r	.	4.r	.	4.r	.	4.ryy	4.ryy	4.ryy	8r	.	8r
8AA/J	.	.	.	.	.	.	.	.	.	.	.	.	.	.	.	.	16r	.	16r
.	.	.	.	.	.	.	.	.	.	.	.	.	.	.	.	.	16cc#X\KL	.	16aa`\LL
8r	.	.	.	.	.	.	.	.	.	.	.	.	.	.	.	.	8cc#\J	.	(16gg#X\
.	.	.	.	.	.	.	.	.	.	.	.	.	.	.	.	.	.	.	16aa\JJ)
=64	=64	=64	=64	=64	=64	=64	=64	=64	=64	=64	=64	=64	=64	=64	=64	=64	=64	=64	=64
!	!	!	!	!	!	!	!	!	!	!	!	!	!	!	!	!	!LO:TX:a:t=4.	!	!LO:TX:a:t=4.
!	!	!	!	!	!	!	!	!	!	!	!	!	!	!	!	!	!LO:N:vis=00	!	!LO:N:vis=00
8r	.	.	4.ryy	.	4.ryy	4.r	.	4.r	.	4.r	.	4.r	.	4.ryy	4.ryy	4.ryy	1.r	.	1.r
8C#/L	6	.	.	.	.	.	.	.	.	.	.	.	.	.	.	.	.	.	.
8C#/J	.	.	.	.	.	.	.	.	.	.	.	.	.	.	.	.	.	.	.
=65	=65	=65	=65	=65	=65	=65	=65	=65	=65	=65	=65	=65	=65	=65	=65	=65	=65	=65	=65
8r	.	.	4.ryy	.	4.ryy	4.r	.	4.r	.	4.r	.	4.r	.	4.ryy	4.ryy	4.ryy	.	.	.
8c#\L	3	.	.	.	.	.	.	.	.	.	.	.	.	.	.	.	.	.	.
8B\J	3	.	.	.	.	.	.	.	.	.	.	.	.	.	.	.	.	.	.
=66	=66	=66	=66	=66	=66	=66	=66	=66	=66	=66	=66	=66	=66	=66	=66	=66	=66	=66	=66
!LO:TX:t=P:problem:mixedbeam	!	!	!	!	!	!	!	!	!	!	!	!	!	!	!	!	!	!	!
8A\L	3	.	4.ryy	.	4.ryy	4.r	.	4.r	.	4.r	.	4.r	.	4.ryy	4.ryy	4.ryy	.	.	.
8E\	4	.	.	.	.	.	.	.	.	.	.	.	.	.	.	.	.	.	.
8EE/J	3	.	.	.	.	.	.	.	.	.	.	.	.	.	.	.	.	.	.
=67	=67	=67	=67	=67	=67	=67	=67	=67	=67	=67	=67	=67	=67	=67	=67	=67	=67	=67	=67
!LO:LB:g=original	!	!	!	!	!	!	!	!	!	!	!	!	!	!	!	!	!	!	!
!LO:TX:t=P:problem:mixedbeam	!	!	!	!	!	!	!	!	!	!	!	!	!	!	!	!	!	!	!
16AA/LL	.	.	4.ryy	.	4.ryy	4.r	.	4.r	.	4.r	.	4.r	.	4.ryy	4.ryy	4.ryy	.	.	.
16F#'\	.	.	.	.	.	.	.	.	.	.	.	.	.	.	.	.	.	.	.
16E'\	.	.	.	.	.	.	.	.	.	.	.	.	.	.	.	.	.	.	.
16D'\	.	.	.	.	.	.	.	.	.	.	.	.	.	.	.	.	.	.	.
16C#'\	.	.	.	.	.	.	.	.	.	.	.	.	.	.	.	.	.	.	.
16BB'\JJ	.	.	.	.	.	.	.	.	.	.	.	.	.	.	.	.	.	.	.
=68	=68	=68	=68	=68	=68	=68	=68	=68	=68	=68	=68	=68	=68	=68	=68	=68	=68	=68	=68
8AA/L	.	.	4.ryy	.	4.ryy	4.r	.	4.r	.	4.r	.	4.r	.	4.ryy	4.ryy	4.ryy	8r	.	8r
8C#/	6	.	.	.	.	.	.	.	.	.	.	.	.	.	.	.	8r	.	8r
8C#/J	.	.	.	.	.	.	.	.	.	.	.	.	.	.	.	.	8ee\	.	8ee\
=69	=69	=69	=69	=69	=69	=69	=69	=69	=69	=69	=69	=69	=69	=69	=69	=69	=69	=69	=69
8r	.	.	4.ryy	.	4.ryy	4.r	.	4.r	.	4.r	.	4.r	.	4.ryy	4.ryy	4.ryy	4dd\	.	4ff#\
8D\L	3	.	.	.	.	.	.	.	.	.	.	.	.	.	.	.	.	.	.
8D\J	.	.	.	.	.	.	.	.	.	.	.	.	.	.	.	.	8b\	.	8dd\
=70	=70	=70	=70	=70	=70	=70	=70	=70	=70	=70	=70	=70	=70	=70	=70	=70	=70	=70	=70
!LO:TX:t=P:problem:mixedbeam	!	!	!	!	!	!	!	!	!	!	!	!	!	!	!	!	!LO:SIC:o:s=:v:niejednoznaczny zapis artykulacji [przyjęto staccatissimo]&colon;global	!	!
8C#\L	6	.	4.ryy	.	4.ryy	4.r	.	4.r	.	4.r	.	4.r	.	4.ryy	4.ryy	4.ryy	8a`\	.	(16cc#X\LL
.	.	.	.	.	.	.	.	.	.	.	.	.	.	.	.	.	.	.	16ee\JJ)
8E\	4	.	.	.	.	.	.	.	.	.	.	.	.	.	.	.	(8ee\L	.	8aa`\L
8EE\J	3	.	.	.	.	.	.	.	.	.	.	.	.	.	.	.	8dd\J)	.	8gg#X`\J
=71	=71	=71	=71	=71	=71	=71	=71	=71	=71	=71	=71	=71	=71	=71	=71	=71	=71	=71	=71
8AA/	.	.	4.ryy	.	4.ryy	4.r	.	4.r	.	4.r	.	4.r	.	4.ryy	4.ryy	4.ryy	8cc#X`\	.	8aa\
8r	.	.	.	.	.	.	.	.	.	.	.	.	.	.	.	.	8r	.	8r
8F#\	6	.	.	.	.	.	.	.	.	.	.	.	.	.	.	.	8r	.	8r
=72	=72	=72	=72	=72	=72	=72	=72	=72	=72	=72	=72	=72	=72	=72	=72	=72	=72	=72	=72
8E\	.	.	4.ryy	.	4.ryy	4.r	.	4.r	.	4.r	.	4.r	.	4.ryy	4.ryy	4.ryy	8r	.	8r
8r	.	.	.	.	.	.	.	.	.	.	.	.	.	.	.	.	8r	.	8r
8G#\	6 5n	.	.	.	.	.	.	.	.	.	.	.	.	.	.	.	8b\	.	8dd\
=73	=73	=73	=73	=73	=73	=73	=73	=73	=73	=73	=73	=73	=73	=73	=73	=73	=73	=73	=73
!	!	!	!	!	!	!	!	!	!	!	!	!	!	!	!	!	!	!	!LO:LB:g=original
!LO:TX:t=P:problem:mixedbeam	!	!	!	!	!	!	!	!	!	!	!	!	!	!	!	!	!	!	!
8A\L	.	.	4.ryy	.	4.ryy	4.r	.	4.r	.	4.r	.	4.r	.	4.ryy	4.ryy	4.ryy	8a`/	.	(16cc#X\LL
.	.	.	.	.	.	.	.	.	.	.	.	.	.	.	.	.	.	.	32dd\L
.	.	.	.	.	.	.	.	.	.	.	.	.	.	.	.	.	.	.	32ee\JJJ)
8E\	4	.	.	.	.	.	.	.	.	.	.	.	.	.	.	.	(8ee\L	.	8aa`\L
8EE/J	3	.	.	.	.	.	.	.	.	.	.	.	.	.	.	.	8dd\J)	.	8gg#X`\J
=74	=74	=74	=74	=74	=74	=74	=74	=74	=74	=74	=74	=74	=74	=74	=74	=74	=74	=74	=74
!	!	!	!	!	!	!	!	!	!	!	!	!LO:TX:b:t=Sieq(ue)" Gloria.	!	!	!	!	!	!	!
!	!	!	!LO:TX:a:B:t=Kirie da Capo	!	!LO:TX:a:B:t=Kyrie Da Capo.	!	!	!	!	!LO:TX:b:B:t=Kyrie Da Capo	!	!LO:TX:a:B:t=Kyrie Da Capo	!	!	!LO:TX:b:B:t=Kyrie Da Capo.	!LO:TX:b:B:t=Kyrie Da Capo.	!	!	!
4AA/	.	.	4.ryy	.	4.ryy	4.r	.	4.r	.	4.r	.	4.r	.	4.ryy	4.ryy	4.ryy	8cc#X\	.	4aa\
.	.	.	.	.	.	.	.	.	.	.	.	.	.	.	.	.	8r	.	.
!LO:TX:a:B:t=Da Capo Ky&colon;	!	!	!	!	!	!	!	!	!	!	!	!	!	!	!	!	!LO:SIC:o:s=:v:brak oznaczenia "Kyrie Da Capo"	!	!LO:TX:a:B:t=Kyrie Da Capo.
8r	.	.	.	.	.	.	.	.	.	.	.	.	.	.	.	.	8r	.	8r
==	==	==	==	==	==	==	==	==	==	==	==	==	==	==	==	==	==	==	==
*-	*-	*-	*-	*-	*-	*-	*-	*-	*-	*-	*-	*-	*-	*-	*-	*-	*-	*-	*-
!!!system-decoration: [(s1,s2)][(s3,s4)]s5[(s6,s7,s8,s9)][(s10,s11)]s12
!!!RDF**kern: > = above
!!!RDF**kern: < = below
!!!EED: Leszek Kubiak
!!!EST: 2020-06-24
!!!ENC: Andrzej Kubiczek
!!!END: 2020-06-21
